X:15
T:Bourree des conscrits
Z:Jack Campin, 2014
F:http://www.campin.me.uk/Music/YoupNannetteD.abc
S:p23, p1000212.jpg
M:3/8
L:1/8
Q:1/4=120
K:G
D|GGB|DDD|GG/B/G/B/|   d2   \
D|GGB|DDD|GBD      |[1 G2 :|\
                    [2 G3 ||
  B2c|d2B|c/B/cd   |   e3  |\
  ABc|ded|cBA      |[1 B2G:|\
                    [2 G2|]

